src/assets/bg_invite_btn.svg

<svg width="160" height="210" viewBox="0 0 160 210" fill="none" xmlns="http://www.w3.org/2000/svg">
<path d="M31.3883 5C23.4712 5 16.9172 11.1531 16.4182 19.0545L5.68133 189.055C5.13571 197.694 11.9953 205 20.6515 205H139.348C148.005 205 154.864 197.693 154.319 189.055L143.582 19.0545C143.083 11.1531 136.529 5 128.612 5H31.3883Z" stroke="#8B5800" stroke-width="10"/>
<path d="M19.5013 18.4744C19.7809 13.1631 24.1689 9 29.4875 9H130.512C135.831 9 140.219 13.1632 140.499 18.4744L149.446 188.474C149.747 194.196 145.189 199 139.46 199H20.5402C14.8108 199 10.2529 194.196 10.554 188.474L19.5013 18.4744Z" fill="url(#paint0_linear_359_9146)"/>
<path d="M19.5013 18.4744C19.7809 13.1631 24.1689 9 29.4875 9H130.512C135.831 9 140.219 13.1632 140.499 18.4744L149.446 188.474C149.747 194.196 145.189 199 139.46 199H20.5402C14.8108 199 10.2529 194.196 10.554 188.474L19.5013 18.4744Z" fill="url(#paint1_linear_359_9146)"/>
<path d="M21.4986 18.5795C21.7222 14.3305 25.2326 11 29.4875 11H130.512C134.767 11 138.278 14.3305 138.501 18.5795L147.449 188.58C147.69 193.157 144.043 197 139.46 197H20.5402C15.9567 197 12.3103 193.157 12.5512 188.58L21.4986 18.5795Z" stroke="url(#paint2_linear_359_9146)" stroke-width="4"/>
<path d="M29.4875 5C22.0415 5 15.8982 10.8284 15.5069 18.2642L6.55951 188.264C6.13793 196.274 12.5191 203 20.5402 203H139.46C147.481 203 153.862 196.274 153.44 188.264L144.493 18.2642C144.102 10.8284 137.959 5 130.512 5H29.4875Z" stroke="url(#paint3_linear_359_9146)" stroke-width="8"/>
<path d="M26.832 18.8217C26.9264 17.2369 28.2391 16 29.8267 16H130.173C131.761 16 133.074 17.2369 133.168 18.8217L142.982 183.697C142.994 183.899 142.986 184.101 142.957 184.3L142.368 188.424C142.157 189.902 140.891 191 139.398 191H20.6019C19.1089 191 17.8432 189.902 17.632 188.424L17.0429 184.3C17.0144 184.101 17.006 183.899 17.018 183.697L26.832 18.8217Z" fill="url(#paint4_linear_359_9146)"/>
<path d="M26.8348 18.8249C26.9276 17.2387 28.2409 16 29.8297 16H130.17C131.759 16 133.072 17.2387 133.165 18.8249L142.814 183.825C142.915 185.548 141.545 187 139.819 187H20.1806C18.4549 187 17.0849 185.548 17.1857 183.825L26.8348 18.8249Z" fill="url(#paint5_linear_359_9146)"/>
<mask id="mask0_359_9146" style="mask-type:alpha" maskUnits="userSpaceOnUse" x="17" y="16" width="126" height="171">
<path d="M26.8348 18.8249C26.9276 17.2387 28.2409 16 29.8297 16H130.17C131.759 16 133.072 17.2387 133.165 18.8249L142.814 183.825C142.915 185.548 141.545 187 139.819 187H20.1806C18.4549 187 17.0849 185.548 17.1857 183.825L26.8348 18.8249Z" fill="url(#paint6_linear_359_9146)"/>
</mask>
<g mask="url(#mask0_359_9146)">
<g filter="url(#filter0_f_359_9146)">
<ellipse cx="80" cy="191.5" rx="66" ry="16.5" fill="#01A406"/>
</g>
</g>
<g style="mix-blend-mode:screen" opacity="0.66">
<path d="M28.8021 20.7875C28.9136 19.2171 30.2201 18 31.7945 18H128.205C129.78 18 131.086 19.2171 131.198 20.7875L142.772 183.788C142.895 185.524 141.52 187 139.779 187H20.2206C18.48 187 17.1048 185.524 17.2281 183.788L28.8021 20.7875Z" fill="url(#paint7_linear_359_9146)"/>
</g>
<g style="mix-blend-mode:screen" opacity="0.47" filter="url(#filter1_f_359_9146)">
<ellipse cx="80" cy="27.5" rx="51" ry="6.5" fill="#77FF7B"/>
</g>
<g style="mix-blend-mode:screen">
<path d="M13.8445 15.897C14.2006 9.02758 19.83 3.8192 26.7064 3.64528C38.0754 3.35774 56.8681 3 79.9999 3C103.163 3 121.976 3.35871 133.34 3.64645C140.196 3.82006 145.81 9.00398 146.163 15.8537C146.5 22.3718 146.692 31.1341 146.22 41C146.221 29.3969 144.693 20.5413 143.326 14.9394C142.266 10.6009 138.441 7.76561 133.983 7.49056C124.38 6.89802 105.603 6 79.9999 6C55.0263 6 36.5475 6.85438 26.742 7.4463C21.9157 7.73764 17.8509 11.0103 16.8723 15.7453C15.6942 21.4453 14.3108 30.0897 13.7799 41C13.3041 31.2932 13.5031 22.4832 13.8445 15.897Z" fill="url(#paint8_linear_359_9146)"/>
</g>
<g style="mix-blend-mode:screen">
<path d="M80 199C103.882 199 124.821 199.095 142 199C142 199 121.5 201 80 201C38.5 201 18 199 18 199C35.1787 199.095 56.1181 199 80 199Z" fill="url(#paint9_linear_359_9146)"/>
</g>
<defs>
<filter id="filter0_f_359_9146" x="6.5" y="167.5" width="147" height="48" filterUnits="userSpaceOnUse" color-interpolation-filters="sRGB">
<feFlood flood-opacity="0" result="BackgroundImageFix"/>
<feBlend mode="normal" in="SourceGraphic" in2="BackgroundImageFix" result="shape"/>
<feGaussianBlur stdDeviation="3.75" result="effect1_foregroundBlur_359_9146"/>
</filter>
<filter id="filter1_f_359_9146" x="21.5" y="13.5" width="117" height="28" filterUnits="userSpaceOnUse" color-interpolation-filters="sRGB">
<feFlood flood-opacity="0" result="BackgroundImageFix"/>
<feBlend mode="normal" in="SourceGraphic" in2="BackgroundImageFix" result="shape"/>
<feGaussianBlur stdDeviation="3.75" result="effect1_foregroundBlur_359_9146"/>
</filter>
<linearGradient id="paint0_linear_359_9146" x1="80" y1="9" x2="80" y2="199" gradientUnits="userSpaceOnUse">
<stop stop-color="#F6C424"/>
<stop offset="1" stop-color="#E8A208"/>
</linearGradient>
<linearGradient id="paint1_linear_359_9146" x1="80" y1="9" x2="80" y2="199" gradientUnits="userSpaceOnUse">
<stop stop-color="#FFF8BF"/>
<stop offset="1" stop-color="#FCF191"/>
</linearGradient>
<linearGradient id="paint2_linear_359_9146" x1="80" y1="10.044" x2="80" y2="197.956" gradientUnits="userSpaceOnUse">
<stop stop-color="#E8A208"/>
<stop offset="1" stop-color="#F6C424"/>
</linearGradient>
<linearGradient id="paint3_linear_359_9146" x1="80" y1="9" x2="80" y2="199" gradientUnits="userSpaceOnUse">
<stop stop-color="#F6C424"/>
<stop offset="1" stop-color="#E8A208"/>
</linearGradient>
<linearGradient id="paint4_linear_359_9146" x1="80" y1="10.8089" x2="80" y2="200.285" gradientUnits="userSpaceOnUse">
<stop stop-color="#008C05"/>
<stop offset="1" stop-color="#007004"/>
</linearGradient>
<linearGradient id="paint5_linear_359_9146" x1="80" y1="10.9275" x2="80" y2="196.072" gradientUnits="userSpaceOnUse">
<stop stop-color="#004A02"/>
<stop offset="1" stop-color="#008C05"/>
</linearGradient>
<linearGradient id="paint6_linear_359_9146" x1="80" y1="10.9275" x2="80" y2="196.072" gradientUnits="userSpaceOnUse">
<stop stop-color="#004A02"/>
<stop offset="1" stop-color="#008C05"/>
</linearGradient>
<linearGradient id="paint7_linear_359_9146" x1="80" y1="1.25806" x2="80" y2="204.952" gradientUnits="userSpaceOnUse">
<stop stop-color="#009A05"/>
<stop offset="0.315787" stop-color="#006403" stop-opacity="0"/>
</linearGradient>
<linearGradient id="paint8_linear_359_9146" x1="79.9998" y1="1" x2="79.9998" y2="84" gradientUnits="userSpaceOnUse">
<stop stop-color="#FFD866"/>
<stop offset="1" stop-color="#FFD73B"/>
</linearGradient>
<linearGradient id="paint9_linear_359_9146" x1="80.0002" y1="123" x2="80.0002" y2="206" gradientUnits="userSpaceOnUse">
<stop stop-color="#FDC00F"/>
<stop offset="1" stop-color="#E9BA02"/>
</linearGradient>
</defs>
</svg>

<svg width="160" height="210" fill="none" xmlns="http://www.w3.org/2000/svg"><path d="M31.388 5c-7.917 0-14.47 6.153-14.97 14.055l-10.737 170C5.136 197.694 11.995 205 20.651 205h118.697c8.657 0 15.516-7.307 14.971-15.945l-10.737-170C143.083 11.152 136.529 5 128.612 5H31.388z" stroke="#8B5800" stroke-width="10"/><path d="M19.501 18.474A10 10 0 0 1 29.487 9h101.025a10 10 0 0 1 9.987 9.474l8.947 170c.301 5.722-4.257 10.526-9.986 10.526H20.54c-5.73 0-10.287-4.804-9.986-10.526l8.947-170z" fill="url(#a)"/><path d="M19.501 18.474A10 10 0 0 1 29.487 9h101.025a10 10 0 0 1 9.987 9.474l8.947 170c.301 5.722-4.257 10.526-9.986 10.526H20.54c-5.73 0-10.287-4.804-9.986-10.526l8.947-170z" fill="url(#b)"/><path d="M21.499 18.58A8 8 0 0 1 29.488 11h101.024a8 8 0 0 1 7.989 7.58l8.948 170c.241 4.577-3.406 8.42-7.989 8.42H20.54c-4.583 0-8.23-3.843-7.989-8.42l8.948-170z" stroke="url(#c)" stroke-width="4"/><path d="M29.488 5c-7.447 0-13.59 5.828-13.981 13.264l-8.947 170C6.138 196.274 12.52 203 20.54 203h118.92c8.021 0 14.402-6.726 13.98-14.736l-8.947-170C144.102 10.828 137.959 5 130.512 5H29.487z" stroke="url(#d)" stroke-width="8"/><path d="M26.832 18.822A3 3 0 0 1 29.827 16h100.346a3 3 0 0 1 2.995 2.822l9.814 164.875c.012.202.004.404-.025.603l-.589 4.124a3 3 0 0 1-2.97 2.576H20.602a3 3 0 0 1-2.97-2.576l-.59-4.124a2.999 2.999 0 0 1-.024-.603l9.814-164.875z" fill="url(#e)"/><path d="M26.835 18.825A3 3 0 0 1 29.83 16h100.34a3 3 0 0 1 2.995 2.825l9.649 165a3 3 0 0 1-2.995 3.175H20.181a3 3 0 0 1-2.995-3.175l9.649-165z" fill="url(#f)"/><mask id="h" style="mask-type:alpha" maskUnits="userSpaceOnUse" x="17" y="16" width="126" height="171"><path d="M26.835 18.825A3 3 0 0 1 29.83 16h100.34a3 3 0 0 1 2.995 2.825l9.649 165a3 3 0 0 1-2.995 3.175H20.181a3 3 0 0 1-2.995-3.175l9.649-165z" fill="url(#g)"/></mask><g filter="url(#i)" mask="url(#h)"><ellipse cx="80" cy="191.5" rx="66" ry="16.5" fill="#01A406"/></g><path d="M28.802 20.788A3 3 0 0 1 31.794 18h96.411a3 3 0 0 1 2.993 2.788l11.574 163a3 3 0 0 1-2.993 3.212H20.221a3 3 0 0 1-2.993-3.212l11.574-163z" fill="url(#j)" style="mix-blend-mode:screen" opacity=".66"/><g style="mix-blend-mode:screen" opacity=".47" filter="url(#k)"><ellipse cx="80" cy="27.5" rx="51" ry="6.5" fill="#77FF7B"/></g><path d="M13.845 15.897C14.2 9.027 19.83 3.819 26.706 3.645 38.076 3.358 56.868 3 80 3c23.163 0 41.976.359 53.34.646 6.856.174 12.47 5.358 12.823 12.208.337 6.518.529 15.28.057 25.146.001-11.603-1.527-20.459-2.894-26.06-1.06-4.34-4.885-7.174-9.343-7.45C124.38 6.899 105.603 6 80 6c-24.974 0-43.453.854-53.258 1.446-4.826.292-8.891 3.564-9.87 8.3-1.178 5.7-2.561 14.344-3.092 25.254-.476-9.707-.277-18.517.065-25.103z" fill="url(#l)" style="mix-blend-mode:screen"/><path d="M80 199c23.882 0 44.821.095 62 0 0 0-20.5 2-62 2s-62-2-62-2c17.179.095 38.118 0 62 0z" fill="url(#m)" style="mix-blend-mode:screen"/><defs><linearGradient id="e" x1="80" y1="10.809" x2="80" y2="200.285" gradientUnits="userSpaceOnUse"><stop stop-color="#008C05"/><stop offset="1" stop-color="#007004"/></linearGradient><linearGradient id="m" x1="80" y1="123" x2="80" y2="206" gradientUnits="userSpaceOnUse"><stop stop-color="#FDC00F"/><stop offset="1" stop-color="#E9BA02"/></linearGradient><linearGradient id="a" x1="80" y1="9" x2="80" y2="199" gradientUnits="userSpaceOnUse"><stop stop-color="#F6C424"/><stop offset="1" stop-color="#E8A208"/></linearGradient><linearGradient id="b" x1="80" y1="9" x2="80" y2="199" gradientUnits="userSpaceOnUse"><stop stop-color="#FFF8BF"/><stop offset="1" stop-color="#FCF191"/></linearGradient><linearGradient id="c" x1="80" y1="10.044" x2="80" y2="197.956" gradientUnits="userSpaceOnUse"><stop stop-color="#E8A208"/><stop offset="1" stop-color="#F6C424"/></linearGradient><linearGradient id="d" x1="80" y1="9" x2="80" y2="199" gradientUnits="userSpaceOnUse"><stop stop-color="#F6C424"/><stop offset="1" stop-color="#E8A208"/></linearGradient><linearGradient id="l" x1="80" y1="1" x2="80" y2="84" gradientUnits="userSpaceOnUse"><stop stop-color="#FFD866"/><stop offset="1" stop-color="#FFD73B"/></linearGradient><linearGradient id="f" x1="80" y1="10.928" x2="80" y2="196.072" gradientUnits="userSpaceOnUse"><stop stop-color="#004A02"/><stop offset="1" stop-color="#008C05"/></linearGradient><linearGradient id="g" x1="80" y1="10.928" x2="80" y2="196.072" gradientUnits="userSpaceOnUse"><stop stop-color="#004A02"/><stop offset="1" stop-color="#008C05"/></linearGradient><linearGradient id="j" x1="80" y1="1.258" x2="80" y2="204.952" gradientUnits="userSpaceOnUse"><stop stop-color="#009A05"/><stop offset=".316" stop-color="#006403" stop-opacity="0"/></linearGradient><filter id="k" x="21.5" y="13.5" width="117" height="28" filterUnits="userSpaceOnUse" color-interpolation-filters="sRGB"><feFlood flood-opacity="0" result="BackgroundImageFix"/><feBlend in="SourceGraphic" in2="BackgroundImageFix" result="shape"/><feGaussianBlur stdDeviation="3.75" result="effect1_foregroundBlur_359_9146"/></filter><filter id="i" x="6.5" y="167.5" width="147" height="48" filterUnits="userSpaceOnUse" color-interpolation-filters="sRGB"><feFlood flood-opacity="0" result="BackgroundImageFix"/><feBlend in="SourceGraphic" in2="BackgroundImageFix" result="shape"/><feGaussianBlur stdDeviation="3.75" result="effect1_foregroundBlur_359_9146"/></filter></defs></svg>
